X:4836
T:Ent 'anara garda
R:Bourr\'ee
O:France
M:3/4
K:G
G2|ABc2B2|ABc2d2|c4B2|A2G2G2|\
ABc2B2|ABc2d2|c4B2|A4::\
G2|ABc2B2|G2A2B2|G3GF2|G2A4|\
ABc2B2|G2A2B2|G3GF2|G6:|
